!!!COA:	Josquin des Prez
!!!CDT:	~1450-1521/08/27
!!!COA2: Moulu
!!!COA3: Verdelot
!!!COA4: Mouton
!!!OTL@@LAT:	Quam pulchra es
!!!OTL2@@LAT:	Labia tua lilia
!!!AGN:	Motet
!!!SCT:	NJE 14.10
!!!SCA:	New Josquin Edition 14.10
!!!voices:	4
**kern	**kern	**kern	**kern
*staff4	*staff3	*staff2	*staff1
*Ivox	*Ivox	*Ivox	*Ivox
*I"Bassus	*I"Tenor	*I"Altus	*I"Superius
*I'B	*I'T	*I'A	*I'S
*clefF4	*clefGv2	*clefGv2	*clefG2
*k[b-]	*k[b-]	*k[b-]	*k[b-]
*M2/1	*M2/1	*M2/1	*M2/1
*met(C|)	*met(C|)	*met(C|)	*met(C|)
=1-	=1-	=1-	=1-
0r	0r	0F	0r
=2	=2	=2	=2
0r	0r	1F	0r
.	.	1B-	.
=3	=3	=3	=3
0r	0r	1A	0f
.	.	2r	.
.	.	2A/	.
=4	=4	=4	=4
0r	0r	2c\	1f
.	.	2c\	.
.	.	1d	1b-
=5	=5	=5	=5
0FF	0r	2.c\	1a
.	.	8B-\L	.
.	.	8c\J	.
.	.	2d\	2r
.	.	[2c\	2a/
=6	=6	=6	=6
1FF	0r	4c\]	2cc\
.	.	4B-\	.
.	.	1A	2cc\
1BB-	.	.	1dd
.	.	2G/	.
=7	=7	=7	=7
1AA	0C	2.A/	[0cc
.	.	8G/L	.
.	.	8F/J	.
2r	.	2E/	.
2AA/	.	2A/	.
=8	=8	=8	=8
2C/	1C	2G/	1cc]
2C/	.	1A	.
1D	1F	.	2r
.	.	4G/	2a/
.	.	4F/	.
=9	=9	=9	=9
0C	1E	2A/	1.cc
.	.	1G	.
.	2r	.	.
.	2E/	[2c\	2cc\
=10	=10	=10	=10
1r	2G/	2c\]	1dd
.	2G/	2B-\	.
2r	1A	1c	[1cc
2AA/	.	.	.
=11	=11	=11	=11
2C/	1G	2r	1cc]
2C/	.	2E/	.
1D	1r	2.F/	2r
.	.	.	2a/
.	.	4G/	.
=12	=12	=12	=12
1C	2r	4A/	2cc\
.	.	4B-\	.
.	2E/	1c	2cc\
2r	[1G	.	1dd
2GG/	.	2B-\	.
=13	=13	=13	=13
2C/	2G/]	2c\	[0cc;l
2C/	2G/	2C/	.
1FF	1A	1F	.
=14	=14	=14	=14
0C;l	0G;l	2.E/	0cc]
.	.	4D/	.
!	!	!LO:N:vis=0.	!
.	.	1E;	.
=15	=15	=15	=15
0r	0r	0F	0r
=16	=16	=16	=16
0r	0r	1F	0r
.	.	1B-	.
=17	=17	=17	=17
0r	0r	1A	0f
.	.	2r	.
.	.	2F/	.
=18	=18	=18	=18
0r	0r	1c	1f
.	.	1d	1b-
=19	=19	=19	=19
0FF	0r	2c\	1a
.	.	4F/	.
.	.	4G/	.
.	.	4A/	2r
.	.	4B-\	.
.	.	[2c\	2f/
=20	=20	=20	=20
1FF	0r	4c\]	1cc
.	.	4B-\	.
.	.	1A	.
1BB-	.	.	1dd
.	.	2G/	.
=21	=21	=21	=21
1AA	0C	2A/	[0cc
.	.	4G/	.
.	.	4F/	.
2r	.	2E/	.
2FF/	.	2F/	.
=22	=22	=22	=22
1C	1C	2G/	1cc]
.	.	1A	.
1D	1F	.	2r
.	.	4G/	2f/
.	.	4F/	.
=23	=23	=23	=23
1.C	1E	2A/	0cc
.	.	2.G/	.
.	2r	.	.
.	.	4F/	.
4BB-/	2C/	[2F/	.
4AA/	.	.	.
=24	=24	=24	=24
1GG	1G	2F/]	2.b-\
.	.	2E/	.
.	.	.	4cc\
1FF	1A	2F/	2dd\
.	.	[2C/	[2cc\
=25	=25	=25	=25
[0C	1G	4C/]	2cc\]
.	.	4D/	.
.	.	4E/	4b-\
.	.	4F/	4a/
.	1r	2G/	1g
.	.	[2C/	.
=26	=26	=26	=26
0C]	0G	4C/]	2r
.	.	4D/	.
.	.	4E/	1cc
.	.	4F/	.
.	.	4G/	.
.	.	4C/	.
.	.	[2c\	2cc\
=27	=27	=27	=27
1r	1G	2c\]	1dd
.	.	2B-\	.
[1C	1A	1c	2cc\
.	.	.	4c/
.	.	.	4d/
=28	=28	=28	=28
1C]	2G/	0r	4e/
.	.	.	4f/
.	2E/	.	2g/
1C	1G	.	2c/
.	.	.	[2cc\
=29	=29	=29	=29
1D	1F	1r	2cc\]
.	.	.	2b-\
2C/	[1E	2r	1cc
2AA/	.	[2c\	.
=30	=30	=30	=30
1C	1E]	2c\]	2r
.	.	2c\	1a
1BB-	2r	1d	.
.	2D/	.	2g/
=31	=31	=31	=31
2AA/	1F	2c\	1a
2FF/	.	2A/	.
2.C/	1E	1c	2g/
.	.	.	2e/
4BB-/	.	.	.
=32	=32	=32	=32
1GG	1D	1B-	1g
1D	1r	1A	1f
=33	=33	=33	=33
0C	0G	2r	2.e/
.	.	1c	.
.	.	.	4f/
.	.	.	4g/
.	.	.	4c/
.	.	2c\	[2cc\
=34	=34	=34	=34
1r	1G	1d	2cc\]
.	.	.	2b-\
[1C	1A	2c\	1cc
.	.	4C/	.
.	.	4D/	.
=35	=35	=35	=35
1C]	2G/	4E/	0r
.	.	4F/	.
.	2E/	2G/	.
1C	1G	2C/	.
.	.	[2c\	.
=36	=36	=36	=36
1D	1F	2c\]	1r
.	.	2B-\	.
2C/	[1E	1c	2r
2AA/	.	.	[2cc\
=37	=37	=37	=37
1C	1E]	2r	2cc\]
.	.	1G	2cc\
1BB-	2r	.	1dd
.	2D/	2G/	.
=38	=38	=38	=38
2AA/	1F	1A	2cc\
2FF/	.	.	2a/
2.C/	1E	2G/	1cc
.	.	2E/	.
4BB-/	.	.	.
=39	=39	=39	=39
1GG	1D	1G	2.b-\
.	.	.	8a/L
.	.	.	8g/J
2.D\	1r	1F	2a/
.	.	.	[2b-\
4C/	.	.	.
=40	=40	=40	=40
2AA/	2r	1E	4b-\]
.	.	.	4a/
2C/	2E/	.	1a
2BB-/	2D/	1r	.
2C/	2C/	.	2g/
=41	=41	=41	=41
1FF	1F	0r	[0a
1r	2F/	.	.
.	2D/	.	.
=42	=42	=42	=42
1AA	2E/	0r	1a]
.	2F/	.	.
2GG/	2G/	.	1r
2FF/	[2A/	.	.
=43	=43	=43	=43
1C	2A/]	1r	0r
.	4G/	.	.
.	4F/	.	.
2C/	2E/	2r	.
2AA/	2F/	2A/	.
=44	=44	=44	=44
1BB-	1D	2G/	0r
.	.	2F/	.
[1AA	2.E/	1c	.
.	4D/	.	.
=45	=45	=45	=45
2AA/]	2E/	2c\	2r
2FF/	2F/	2A/	2a/
2GG/	2D/	2B-\	2g/
2AA/	2C/	[2A/	2f/
=46	=46	=46	=46
1FF	0F	2A/]	1.cc
.	.	2F/	.
2r	.	1A	.
[2F\	.	.	2a/
=47	=47	=47	=47
2F\]	0r	1G	1b-
2E\	.	.	.
2.F\	.	2F/	2a/
.	.	[2c\	[2a/
4FF/	.	.	.
=48	=48	=48	=48
1FF	2r	2c\]	2a/]
.	1F	4B-\	2f/
.	.	4A/	.
2r	.	2B-\	1g
2C/	2E/	2c\	.
=49	=49	=49	=49
1.D	1F	2A/	1f
.	.	2.B-\	.
.	2r	.	1r
.	.	4A/	.
2D\	2F/	4G/	.
.	.	4F/	.
=50	=50	=50	=50
2.C/	1.G	1E	2r
.	.	.	2cc\
8BB-/L	.	.	.
8AA/J	.	.	.
1GG	.	2r	[1dd
.	2G/	2G/	.
=51	=51	=51	=51
2.D\	2F/	1.A	2dd\]
.	2D/	.	2dd\
8C/L	.	.	.
8BB-/J	.	.	.
2AA/	2E/	.	2cc\
2FF/	2F/	2A/	2a/
=52	=52	=52	=52
2GG/	2D/	2G/	2b-\
2AA/	1C	2E/	2cc\
2FF/	.	2F/	2a/
2BB-/	[2D/	[2G/	[2dd\
=53	=53	=53	=53
2GG/	2D/]	2G/]	4dd\]
.	.	.	4cc\
2C/	2E/	2.A/	1cc
1D	1F	.	.
.	.	4G/	.
.	.	[2F/	2b-\
=54	=54	=54	=54
1C	2G/	2F/]	1cc
.	1C	2E/	.
1FF	.	1F	2r
.	[2F/	.	2a/
=55	=55	=55	=55
2r	4F/]	1r	1.cc
.	8E/L	.	.
.	8D/J	.	.
2C/	2E/	.	.
[1F	1F	1A	.
.	.	.	2b-\
=56	=56	=56	=56
2F\]	1r	2.c\	2a/
2E\	.	.	2g/
.	.	4c\	.
2D\	1F	2B-\	2f/
2C/	.	2A/	2e/
=57	=57	=57	=57
2BB-/	1.B-	2G/	2d/
2AA/	.	1F	2c/
1GG	.	.	1g
.	2B-\	2E/	.
=58	=58	=58	=58
0FF	1A	4F/	1c
.	.	4G/	.
.	.	4A/	.
.	.	4B-\	.
.	2A/	2c\	1r
.	2G/	[2d\	.
=59	=59	=59	=59
2r	2F/	4d\]	1r
.	.	4c\	.
2C/	2E/	1c	.
[1F	1D	.	2r
.	.	2B-\	2f/
=60	=60	=60	=60
2F\]	1C	2.A/	2.cc\
2E\	.	.	.
.	.	4G/	4cc\
2D\	2r	2F/	2b-\
2C/	2F/	2E/	2a/
=61	=61	=61	=61
2BB-/	1.B-	2D/	2g/
2AA/	.	2C/	1f
1GG	.	2r	.
.	2B-\	2G/	2e/
=62	=62	=62	=62
[0FFl	1.A	1.c	1f
.	.	.	2r
.	2G/	2B-\	2f/
=63	=63	=63	=63
0FF_	2F/	2A/	1.cc
.	2E/	2G/	.
.	1D	2F/	.
.	.	2D/	2b-\
=64	=64	=64	=64
0FF_	[0Cl	2.F/	2a/
.	.	.	2g/
.	.	4G/	.
.	.	[1A	2f/
.	.	.	2c/
=65	=65	=65	=65
0FF_	0C_	2A/]	2.f/
.	.	4G/	.
.	.	4F/	4g/
.	.	[1Fl	2a/
.	.	.	2b-\
=66	=66	=66	=66
0FF]	0C]	0F]	0al
!!LO:LB:i:g=z
=67||	=67||	=67||	=67||
*>B	*>B	*>B	*>B
*k[b-]	*k[b-]	*k[b-]	*k[b-]
*M2/1	*M2/1	*M2/1	*M2/1
*met(C|)	*met(C|)	*met(C|)	*met(C|)
!!section: Secunda pars: Labia tua lilia
!!!OMD: Secunda pars: Labia tua lilia
1.C	1.C	0r	0r
2AA/	2C/	.	.
=68	=68	=68	=68
1BB-	1D	0r	0r
1C	1E	.	.
=69	=69	=69	=69
0FF	0F	2r	2r
.	.	2c\	2a/
.	.	2c\	2a/
.	.	2c\	2a/
=70	=70	=70	=70
0r	0r	1.d	1.b-
.	.	2c\	2a/
=71	=71	=71	=71
0r	0r	1B-	2.g/
.	.	.	4f/
.	.	1c	1e
=72	=72	=72	=72
0FF	0C	0A	0f
=73	=73	=73	=73
1BB-	1D	0r	0r
1GG	1E	.	.
=74	=74	=74	=74
0FF	0F	1.c	2r
.	.	.	1a
.	.	2c\	2a/
=75	=75	=75	=75
0r	0r	1d	1b-
.	.	1B-	1g
=76	=76	=76	=76
2r	2r	0c	0a
2FF/	2F/	.	.
2FF/	2F/	.	.
2FF/	2F/	.	.
=77	=77	=77	=77
1.C	1.G	0r	0r
2D\	2F/	.	.
=78	=78	=78	=78
2C/	2E/	1r	1r
2BB-/	2D/	.	.
1AA	1E	2r	2r
.	.	2c\	2a/
=79	=79	=79	=79
0r	0r	2c\	2a/
.	.	2B-\	2g/
.	.	[1c	[1a
=80	=80	=80	=80
0r	0r	2c\]	2a/]
.	.	2d\	2b-\
.	.	2c\	2a/
.	.	2B-\	2g/
=81	=81	=81	=81
1FF	1C	1A	1a
2FF/	2C/	2r	2r
2FF/	2C/	2c\	2a/
=82	=82	=82	=82
1FF	0C	2c\	2a/
.	.	2c\	2a/
2r	.	[1c	[1a
[2FF/	.	.	.
=83	=83	=83	=83
4FF/]	2r	0c_	1a]
4GG/	.	.	.
4AA/	2.C/	.	.
4BB-/	.	.	.
2.C/	.	.	1r
.	4D/	.	.
.	4E/	.	.
4D\	4F/	.	.
=84	=84	=84	=84
2E\	2G/	0c_	0r
1F	1A	.	.
4E\	4G/	.	.
4D\	4F/	.	.
=85	=85	=85	=85
2E\	2G/	1c]	2r
2F\	2A/	.	2.f/
[1FF	1F	2r	.
.	.	.	4g/
.	.	[2F/	4a/
.	.	.	4b-\
=86	=86	=86	=86
1FF]	0r	4F/]	2.cc\
.	.	4G/	.
.	.	4A/	.
.	.	4B-\	4b-\
1r	.	2c\	4a/
.	.	.	4g/
.	.	[2d\	[2b-\
=87	=87	=87	=87
2r	2r	2d\]	4b-\]
.	.	.	4a/
2FF/	2F/	2.c\	1a
2GG/	2D/	.	.
.	.	8B-/L	.
.	.	8A/J	.
2GG/	2E/	2B-\	2g/
=88	=88	=88	=88
0FF	1F	[0c	[0a
.	2r	.	.
.	2C/	.	.
=89	=89	=89	=89
2r	1.F	1c]	1a]
2FF/	.	.	.
[1BB-	.	2r	1r
.	2F/	2F/	.
=90	=90	=90	=90
2BB-/]	1D	1.B-	0r
2BB-/	.	.	.
1GG	2.G/	.	.
.	.	2B-\	.
.	4F/	.	.
=91	=91	=91	=91
2.C/	4E/	2G/	0r
.	4D/	.	.
.	2E/	1c	.
4BB-/	.	.	.
4AA/	2C/	.	.
4GG/	.	.	.
2FF/	[2F/	4B-\	.
.	.	4A/	.
=92	=92	=92	=92
1GG	2F/]	1B-	2r
.	2E/	.	2g/
1FF	1F	[1A	[1cc
=93	=93	=93	=93
2r	0r	1A]	2cc\]
2C/	.	.	2cc\
[1F	.	1r	2.a/
.	.	.	4b-\
=94	=94	=94	=94
2F\]	0r	0r	2cc\
2F\	.	.	1dd
1D	.	.	.
.	.	.	4cc\
.	.	.	4b-\
=95	=95	=95	=95
2.G\	2r	0r	2ee-i\
.	2G/	.	2.dd\
4F\	.	.	.
2E\	2G/	.	.
.	.	.	4cc\
4D\	2E/	.	[2cc\
4C/	.	.	.
=96	=96	=96	=96
1D	2.F/	0r	2cc\]
.	.	.	2bni\
.	4G/	.	.
1C	2A/	.	[1cc
.	[2G/	.	.
=97	=97	=97	=97
2r	4G/]	0r	0cc]
.	4F/	.	.
2C/	4E/	.	.
.	4D/	.	.
2C/	4E/	.	.
.	4C/	.	.
2AA/	[2F/	.	.
=98	=98	=98	=98
2BB-/	2F/]	2r	0r
2C/	2E/	2c\	.
2FF/	1F	2c\	.
[2F\	.	2A/	.
=99	=99	=99	=99
4F\]	1G	2B-\	2r
8E\L	.	.	.
8D\J	.	.	.
2E\	.	2c\	2cc\
2.F\	2A/	[1F	2cc\
.	4D/	.	2a/
4E\	4E/	.	.
=100	=100	=100	=100
2D\	4F/	2F/]	2b-\
.	4G/	.	.
2C/	1A	2.c\	2cc\
1D	.	.	1f
.	.	8B-/L	.
.	.	8A/J	.
.	4G/	2B-\	.
.	4F/	.	.
=101	=101	=101	=101
0C	2E/	[0c	2.g/
.	2G/	.	.
.	.	.	4f/
.	2G/	.	4e/
.	.	.	4d/
.	2E/	.	2c/
=102	=102	=102	=102
2r	2F/	1c]	2.cc\
2C/	2G/	.	.
.	.	.	8b-/L
.	.	.	8a/J
2C/	2C/	1r	4g/
.	.	.	4f/
2AA/	[2F/	.	2a/
=103	=103	=103	=103
2BB-/	4F/]	2r	1g
.	8E/L	.	.
.	8D/J	.	.
2C/	2E/	2c\	.
2FF/	1F	2c\	1f
[2F\	.	2A/	.
=104	=104	=104	=104
4F\]	1G	2B-\	2r
8E\L	.	.	.
8D\J	.	.	.
2E\	.	2c\	2cc\
2.F\	2A/	[1F	2cc\
.	4D/	.	2a/
4E\	4E/	.	.
=105	=105	=105	=105
2D\	4F/	2F/]	2b-\
.	4G/	.	.
2C/	1A	2.c\	2cc\
1D	.	.	1f
.	.	8B-/L	.
.	.	8A/J	.
.	4G/	2B-\	.
.	4F/	.	.
=106	=106	=106	=106
1C	1E	1c	1g
1r	1r	1r	1r
=107	=107	=107	=107
*M3/1	*M3/1	*M3/1	*M3/1
*met(3)	*met(3)	*met(3)	*met(3)
1C	1E	1c	1g
1C	1E	1c	1g
1C	1E	1c	1g
=108	=108	=108	=108
1FF	1F	1c	1a
0GG	0D	0B-	0g
=109	=109	=109	=109
0AA	0C	0c	0e
1r	1r	1r	1r
=110	=110	=110	=110
1C	1E	1c	1g
1C	1E	1c	1g
1C	1E	1c	1g
=111	=111	=111	=111
1FF	1F	1c	1a
0GG	0D	0B-	0g
=112	=112	=112	=112
[0.AA	0C	[0.A	0e
.	1r	.	1r
=113	=113	=113	=113
0AA]	0E	0.A]	0.r
1r	1D	.	.
=114	=114	=114	=114
0AA	1E	0.r	0.r
.	1F	.	.
1GG	1G	.	.
=115	=115	=115	=115
1C	1.E	0A	0.r
0BB-	.	.	.
.	4D/	.	.
.	4C/	.	.
.	1D	1G	.
=116	=116	=116	=116
0AA	1E	0c	0a
.	2C/	.	.
.	1F	.	.
1r	.	1B-	1g
.	2E/	.	.
=117	=117	=117	=117
0AA	1F	1A	0cc
.	1C	1F	.
1GG	1r	1G	1b-
=118	=118	=118	=118
1C	0E	1A	1.a
0BB-	.	0B-	.
.	.	.	4g/
.	.	.	4f/
.	1D	.	1g
=119	=119	=119	=119
*M2/1	*M2/1	*M2/1	*M2/1
*met(C|)	*met(C|)	*met(C|)	*met(C|)
[0AA	1.F	[0c	[0a
.	2E/	.	.
=120	=120	=120	=120
0AA]	1E	0c]	0a_
.	2r	.	.
.	2C/	.	.
=121	=121	=121	=121
1r	1C	2r	0a]
.	.	2c\	.
1FF	1C	1c	.
=122	=122	=122	=122
1FF	1.F	1c	2r
.	.	.	2f/
1FF	.	[1f	1f
.	2E/	.	.
=123	=123	=123	=123
1.BB-	[0D	2f\]	1f
.	.	2e\	.
.	.	2.d\	1b-
2AA/	.	.	.
.	.	4c\	.
=124	=124	=124	=124
2GG/	1D]	2.B-\	2b-\
2FF/	.	.	1b-
.	.	4A/	.
[1EE-	[1E-	2G/	.
.	.	2F/	2a/
=125	=125	=125	=125
1EE-]	1E-]	2.B-\	1g
.	.	8A/L	.
.	.	8G/J	.
[1FF	1C	1A	[1f
=126	=126	=126	=126
1FF]	2r	1r	2f/]
.	2C/	.	2g/
1r	1C	2r	1a
.	.	2c\	.
=127	=127	=127	=127
1FF	1C	1c	1r
1FF	[1F	1c	1f
=128	=128	=128	=128
1FF	2F/]	1.f	1f
.	2E/	.	.
[1BB-	[1D	.	1f
.	.	2e\	.
=129	=129	=129	=129
2BB-/]	0D]	2.d\	1b-
2AA/	.	.	.
.	.	4c\	.
2GG/	.	2.B-\	2b-\
2FF/	.	.	[2b-\
.	.	4A/	.
=130	=130	=130	=130
0EE-i	0E-	2G/	2b-\]
.	.	2F/	2a/
.	.	2.B-\	1g
.	.	8A/L	.
.	.	8G/J	.
=131	=131	=131	=131
0FFl	0Cl	0Al	0fl
==	==	==	==
*-	*-	*-	*-
!!!RDF**kern: l=long note in original notation
!!!RDF**kern: i=editorial accidental
!!!RDF**kern: V=start of tuplet marker
!!!RDF**kern: Z=end of tuplet marker
!!!ENC:	Joel Chapman 2012/1/21
!!!END:	2012/01/21/
!!!EED:	Jesse Rodin
!!!EEV:	2012/02/02/
!!attribution-level@Jos: 6 (very doubtful)
!!!ONB:	Translated from MusicXML and edited on 2012/02/02/ by Craig Sapp
!!muse2ps: C^@{COA}?\n@{SCT}^i2I150v95,95,95,150Q16
